latex_in_markdown/.watch-latex-md-images/0999d1a3098296a6cc84d4119da287c6.svg

<ns0:svg xmlns:ns0="http://www.w3.org/2000/svg" xmlns:ns1="http://www.w3.org/1999/xlink" height="16.0745pt" version="1.1" viewBox="115.757 80.5631 235.733 16.0745" width="235.733pt" watch_lated_md:baseline="0.0" xmlns:watch_lated_md="https://github.com/Quansight/pearu-sandbox/latex_in_markdown/">
<ns0:defs>
<ns0:path d="m7.87846 -2.74969c0.203238 0 0.418431 0 0.418431 -0.239103s-0.215193 -0.239103 -0.418431 -0.239103h-6.46775c-0.203238 0 -0.418431 0 -0.418431 0.239103s0.215193 0.239103 0.418431 0.239103h6.46775z" id="g0-0" />
<ns0:path d="m3.16764 -0.826341c0 -0.499248 -0.413171 -0.843557 -0.826341 -0.843557c-0.499248 0 -0.843557 0.413171 -0.843557 0.826341c0 0.499248 0.413171 0.843557 0.826341 0.843557c0.499248 0 0.843557 -0.413171 0.843557 -0.826341z" id="g1-58" />
<ns0:path d="m2.92662 -1.91091c-0.60254 1.01571 -1.18787 1.36002 -2.01421 1.41167c-0.18937 0.0172154 -0.327093 0.0172154 -0.327093 0.327093c0 0.103293 0.0860772 0.172154 0.206585 0.172154c0.309878 0 1.08457 -0.0344309 1.39445 -0.0344309c0.499248 0 1.05014 0.0344309 1.53217 0.0344309c0.103293 0 0.309878 0 0.309878 -0.327093c0 -0.154939 -0.137724 -0.172154 -0.241016 -0.172154c-0.395955 -0.0344309 -0.723049 -0.172154 -0.723049 -0.585325c0 -0.241016 0.103293 -0.430386 0.327093 -0.809126l1.30837 -2.16915h4.38994c0.0172154 0.154939 0.0172154 0.292662 0.0344309 0.447601c0.0516463 0.447601 0.258232 2.23801 0.258232 2.5651c0 0.516463 -0.877987 0.550894 -1.15343 0.550894c-0.18937 0 -0.37874 0 -0.37874 0.309878c0 0.18937 0.154939 0.18937 0.258232 0.18937c0.292662 0 0.636971 -0.0344309 0.929634 -0.0344309h0.98128c1.05014 0 1.80762 0.0344309 1.82484 0.0344309c0.120508 0 0.309878 0 0.309878 -0.327093c0 -0.172154 -0.154939 -0.172154 -0.413171 -0.172154c-0.946849 0 -0.964065 -0.154939 -1.01571 -0.671402l-1.05014 -10.7424c-0.0344309 -0.344309 -0.103293 -0.37874 -0.292662 -0.37874c-0.172154 0 -0.275447 0.0344309 -0.430386 0.292662l-6.0254 10.0882zm2.06585 -2.65118l3.4603 -5.78439l0.585325 5.78439h-4.04563z" id="g1-65" />
<ns0:path d="m3.08156 -3.99398c0.464817 0 1.63547 -0.0344309 2.46181 -0.344309c1.30837 -0.499248 1.42888 -1.49774 1.42888 -1.80762c0 -0.757479 -0.654187 -1.4461 -1.79041 -1.4461c-1.80762 0 -4.40715 1.63547 -4.40715 4.69982c0 1.80762 1.03293 3.06435 2.59953 3.06435c2.3413 0 3.82183 -1.82484 3.82183 -2.04864c0 -0.103293 -0.103293 -0.18937 -0.172154 -0.18937c-0.0516463 0 -0.0688618 0.0172154 -0.223801 0.172154c-1.10179 1.46331 -2.73726 1.72154 -3.39144 1.72154c-0.98128 0 -1.49774 -0.774695 -1.49774 -2.04864c0 -0.241016 0 -0.671402 0.258232 -1.77319h0.912418zm-0.826341 -0.344309c0.740264 -2.65118 2.37573 -2.90941 2.92662 -2.90941c0.757479 0 1.27394 0.447601 1.27394 1.10179c0 1.80762 -2.75447 1.80762 -3.47752 1.80762h-0.723049z" id="g1-101" />
<ns0:path d="m3.88543 2.90511c0 -0.0358655 0 -0.0597758 -0.203238 -0.263014c-1.19552 -1.20747 -1.86501 -3.18007 -1.86501 -5.61893c0 -2.3193 0.561893 -4.31582 1.94869 -5.72653c0.119552 -0.107597 0.119552 -0.131507 0.119552 -0.167372c0 -0.071731 -0.0597758 -0.0956413 -0.107597 -0.0956413c-0.155417 0 -1.13574 0.860772 -1.72154 2.03238c-0.609714 1.20747 -0.884682 2.48667 -0.884682 3.95716c0 1.06401 0.167372 2.48667 0.789041 3.76588c0.705355 1.43462 1.68568 2.21171 1.81719 2.21171c0.0478207 0 0.107597 -0.0239103 0.107597 -0.0956413z" id="g2-40" />
<ns0:path d="m3.37136 -2.97684c0 -0.908593 -0.119552 -2.39103 -0.789041 -3.77783c-0.705355 -1.43462 -1.68568 -2.21171 -1.81719 -2.21171c-0.0478207 0 -0.107597 0.0239103 -0.107597 0.0956413c0 0.0358655 0 0.0597758 0.203238 0.263014c1.19552 1.20747 1.86501 3.18007 1.86501 5.61893c0 2.3193 -0.561893 4.31582 -1.94869 5.72653c-0.119552 0.107597 -0.119552 0.131507 -0.119552 0.167372c0 0.071731 0.0597758 0.0956413 0.107597 0.0956413c0.155417 0 1.13574 -0.860772 1.72154 -2.03238c0.609714 -1.21943 0.884682 -2.51059 0.884682 -3.94521z" id="g2-41" />
<ns0:path d="m3.44309 -7.66326c0 -0.274969 0 -0.286924 -0.239103 -0.286924c-0.286924 0.32279 -0.884682 0.765131 -2.11606 0.765131v0.3467c0.274969 0 0.872727 0 1.53026 -0.310834v6.22864c0 0.430386 -0.0358655 0.573848 -1.08792 0.573848h-0.37061v0.3467c0.32279 -0.0239103 1.48244 -0.0239103 1.87696 -0.0239103s1.54222 0 1.86501 0.0239103v-0.3467h-0.37061c-1.05205 0 -1.08792 -0.143462 -1.08792 -0.573848v-6.74271z" id="g2-49" />
<ns0:path d="m5.26027 -2.00847h-0.263014c-0.0358655 0.203238 -0.131507 0.860772 -0.251059 1.05205c-0.0836862 0.107597 -0.765131 0.107597 -1.12379 0.107597h-2.21171c0.32279 -0.274969 1.05205 -1.0401 1.36289 -1.32702c1.81719 -1.67372 2.48667 -2.29539 2.48667 -3.47895c0 -1.37484 -1.08792 -2.29539 -2.47472 -2.29539s-2.19975 1.18356 -2.19975 2.21171c0 0.609714 0.526027 0.609714 0.561893 0.609714c0.251059 0 0.561893 -0.179328 0.561893 -0.561893c0 -0.334745 -0.227148 -0.561893 -0.561893 -0.561893c-0.107597 0 -0.131507 0 -0.167372 0.0119552c0.227148 -0.812951 0.872727 -1.36289 1.64981 -1.36289c1.01619 0 1.63786 0.848817 1.63786 1.94869c0 1.01619 -0.585803 1.90087 -1.26725 2.666l-2.41494 2.70187v0.286924h4.36364l0.310834 -2.00847z" id="g2-50" />
<ns0:path d="m2.05629 -8.29689l-1.66177 0.131507v0.3467c0.812951 0 0.908593 0.0836862 0.908593 0.669489v6.26451c0 0.537983 -0.131507 0.537983 -0.908593 0.537983v0.3467c0.334745 -0.0239103 0.920548 -0.0239103 1.2792 -0.0239103s0.956413 0 1.29116 0.0239103v-0.3467c-0.765131 0 -0.908593 0 -0.908593 -0.537983v-7.4122z" id="g2-108" />
<ns0:path d="m5.32005 -2.90511c0 -1.11183 0 -1.44658 -0.274969 -1.82914c-0.3467 -0.466252 -0.908593 -0.537983 -1.31507 -0.537983c-1.15965 0 -1.61395 0.992279 -1.70959 1.23138h-0.0119552v-1.23138l-1.6259 0.131507v0.3467c0.812951 0 0.908593 0.0836862 0.908593 0.669489v3.23985c0 0.537983 -0.131507 0.537983 -0.908593 0.537983v0.3467c0.310834 -0.0239103 0.956413 -0.0239103 1.29116 -0.0239103c0.3467 0 0.992279 0 1.30311 0.0239103v-0.3467c-0.765131 0 -0.908593 0 -0.908593 -0.537983v-2.22366c0 -1.25529 0.824907 -1.92478 1.56613 -1.92478s0.908593 0.609714 0.908593 1.33898v2.80946c0 0.537983 -0.131507 0.537983 -0.908593 0.537983v0.3467c0.310834 -0.0239103 0.956413 -0.0239103 1.29116 -0.0239103c0.3467 0 0.992279 0 1.30311 0.0239103v-0.3467c-0.597758 0 -0.896638 0 -0.908593 -0.358655v-2.19975z" id="g2-110" />
<ns0:path d="m4.57931 -11.0007c0 -0.361524 -0.0172154 -0.37874 -0.258232 -0.37874c-0.671402 0.809126 -1.68711 1.06736 -2.65118 1.10179c-0.0516463 0 -0.137724 0 -0.154939 0.0344309s-0.0172154 0.0688618 -0.0172154 0.430386c0.533679 0 1.42888 -0.103293 2.1175 -0.516463v9.07254c0 0.60254 -0.0344309 0.809126 -1.51496 0.809126h-0.516463v0.447601c0.826341 -0.0172154 1.68711 -0.0344309 2.51345 -0.0344309s1.68711 0.0172154 2.51345 0.0344309v-0.447601h-0.516463c-1.48053 0 -1.51496 -0.18937 -1.51496 -0.809126v-9.74394z" id="g3-49" />
<ns0:path d="m7.17884 -2.66839h-0.309878c-0.172154 1.2223 -0.309878 1.42888 -0.37874 1.53217c-0.0860772 0.137724 -1.32559 0.137724 -1.56661 0.137724h-3.30536c0.619756 -0.671402 1.82484 -1.8937 3.28815 -3.30536c1.05014 -0.998496 2.27244 -2.16915 2.27244 -3.87347c0 -2.03142 -1.61825 -3.20207 -3.42587 -3.20207c-1.8937 0 -3.04713 1.6699 -3.04713 3.21929c0 0.671402 0.499248 0.757479 0.705833 0.757479c0.172154 0 0.688618 -0.103293 0.688618 -0.705833c0 -0.533679 -0.447601 -0.688618 -0.688618 -0.688618c-0.103293 0 -0.206585 0.0172154 -0.275447 0.0516463c0.327093 -1.46331 1.32559 -2.18636 2.37573 -2.18636c1.49774 0 2.47902 1.18787 2.47902 2.75447c0 1.49774 -0.877987 2.7889 -1.85927 3.90791l-3.42587 3.87347v0.395955h6.05984l0.413171 -2.66839z" id="g3-50" />
<ns0:path d="m1.82484 -5.93933c0 -4.11449 1.92813 -5.04412 3.04713 -5.04412c0.361524 0 1.23951 0.0688618 1.58382 0.740264c-0.275447 0 -0.79191 0 -0.79191 0.60254c0 0.464817 0.37874 0.619756 0.619756 0.619756c0.154939 0 0.619756 -0.0688618 0.619756 -0.654187c0 -1.08457 -0.860772 -1.70433 -2.04864 -1.70433c-2.04864 0 -4.20057 2.13471 -4.20057 5.93933c0 4.6826 1.94534 5.71553 3.32258 5.71553c1.6699 0 3.25372 -1.49774 3.25372 -3.80461c0 -2.15193 -1.39445 -3.71854 -3.15043 -3.71854c-1.05014 0 -1.82484 0.688618 -2.25522 1.8937v-0.585325zm2.15193 5.8016c-2.1175 0 -2.1175 -3.16764 -2.1175 -3.80461c0 -1.23951 0.585325 -3.02992 2.18636 -3.02992c0.292662 0 1.13622 0 1.70433 1.18787c0.309878 0.671402 0.309878 1.37724 0.309878 2.23801c0 0.929634 0 1.61825 -0.361524 2.30687c-0.37874 0.705833 -0.929634 1.10179 -1.72154 1.10179z" id="g3-54" />
<ns0:path d="m11.0695 -5.52616c0.258232 0 0.516463 0 0.516463 -0.292662c0 -0.309878 -0.292662 -0.309878 -0.585325 -0.309878h-9.62343c-0.292662 0 -0.585325 0 -0.585325 0.309878c0 0.292662 0.258232 0.292662 0.516463 0.292662h9.76115zm-0.0688618 3.06435c0.292662 0 0.585325 0 0.585325 -0.309878c0 -0.292662 -0.258232 -0.292662 -0.516463 -0.292662h-9.76115c-0.258232 0 -0.516463 0 -0.516463 0.292662c0 0.309878 0.292662 0.309878 0.585325 0.309878h9.62343z" id="g3-61" />
</ns0:defs>
<ns0:g id="page1">
<ns0:use x="115.757" ns1:href="#g3-49" y="96.6376" />
<ns0:use x="123.653" ns1:href="#g3-54" y="96.6376" />
<ns0:use x="136.33" ns1:href="#g3-61" y="96.6376" />
<ns0:use x="153.504" ns1:href="#g1-65" y="96.6376" />
<ns0:use x="166.141" ns1:href="#g1-101" y="96.6376" />
<ns0:use x="173.953" ns1:href="#g2-40" y="89.5295" />
<ns0:use x="178.506" ns1:href="#g0-0" y="89.5295" />
<ns0:use x="189.797" ns1:href="#g2-108" y="89.5295" />
<ns0:use x="193.048" ns1:href="#g2-110" y="89.5295" />
<ns0:use x="199.552" ns1:href="#g2-40" y="89.5295" />
<ns0:use x="204.104" ns1:href="#g2-50" y="89.5295" />
<ns0:use x="209.957" ns1:href="#g2-41" y="89.5295" />
<ns0:use x="214.509" ns1:href="#g2-41" y="89.5295" />
<ns0:use x="219.062" ns1:href="#g2-40" y="89.5295" />
<ns0:use x="223.614" ns1:href="#g0-0" y="89.5295" />
<ns0:use x="232.913" ns1:href="#g2-49" y="89.5295" />
<ns0:use x="238.766" ns1:href="#g2-41" y="89.5295" />
<ns0:use x="248.598" ns1:href="#g3-61" y="96.6376" />
<ns0:use x="265.772" ns1:href="#g1-65" y="96.6376" />
<ns0:use x="278.409" ns1:href="#g1-101" y="96.6376" />
<ns0:use x="286.221" ns1:href="#g2-108" y="89.5295" />
<ns0:use x="289.473" ns1:href="#g2-110" y="89.5295" />
<ns0:use x="297.969" ns1:href="#g2-50" y="89.5295" />
<ns0:use x="309.102" ns1:href="#g3-61" y="96.6376" />
<ns0:use x="326.276" ns1:href="#g3-50" y="96.6376" />
<ns0:use x="334.172" ns1:href="#g1-65" y="96.6376" />
<ns0:use x="346.808" ns1:href="#g1-58" y="96.6376" />
</ns0:g>
</ns0:svg>

<ns0:svg xmlns:ns0="http://www.w3.org/2000/svg" xmlns:ns1="http://www.w3.org/1999/xlink" height="23.3292pt" version="1.1" viewBox="23.686 73.3084 327.805 23.3292" width="327.805pt" watch_lated_md:baseline="21.9178" xmlns:watch_lated_md="https://github.com/Quansight/pearu-sandbox/latex_in_markdown/">
<ns0:defs>
<ns0:path d="M7.87846 -2.74969C8.08169 -2.74969 8.29689 -2.74969 8.29689 -2.98879S8.08169 -3.2279 7.87846 -3.2279H1.41071C1.20747 -3.2279 0.992279 -3.2279 0.992279 -2.98879S1.20747 -2.74969 1.41071 -2.74969H7.87846Z" id="g0-0" />
<ns0:path d="M3.16764 -0.826341C3.16764 -1.32559 2.75447 -1.6699 2.3413 -1.6699C1.84205 -1.6699 1.49774 -1.25673 1.49774 -0.843557C1.49774 -0.344309 1.91091 0 2.32408 0C2.82333 0 3.16764 -0.413171 3.16764 -0.826341Z" id="g1-58" />
<ns0:path d="M2.92662 -1.91091C2.32408 -0.895203 1.73876 -0.550894 0.912418 -0.499248C0.723049 -0.482032 0.585325 -0.482032 0.585325 -0.172154C0.585325 -0.0688618 0.671402 0 0.79191 0C1.10179 0 1.87648 -0.0344309 2.18636 -0.0344309C2.68561 -0.0344309 3.2365 0 3.71854 0C3.82183 0 4.02841 0 4.02841 -0.327093C4.02841 -0.482032 3.89069 -0.499248 3.7874 -0.499248C3.39144 -0.533679 3.06435 -0.671402 3.06435 -1.08457C3.06435 -1.32559 3.16764 -1.51496 3.39144 -1.8937L4.69982 -4.06284H9.08975C9.10697 -3.90791 9.10697 -3.77018 9.12418 -3.61524C9.17583 -3.16764 9.38242 -1.37724 9.38242 -1.05014C9.38242 -0.533679 8.50443 -0.499248 8.22898 -0.499248C8.03961 -0.499248 7.85024 -0.499248 7.85024 -0.18937C7.85024 0 8.00518 0 8.10847 0C8.40114 0 8.74544 -0.0344309 9.03811 -0.0344309H10.0194C11.0695 -0.0344309 11.827 0 11.8442 0C11.9647 0 12.1541 0 12.1541 -0.327093C12.1541 -0.499248 11.9992 -0.499248 11.7409 -0.499248C10.7941 -0.499248 10.7769 -0.654187 10.7252 -1.17065L9.67508 -11.9131C9.64065 -12.2574 9.57179 -12.2918 9.38242 -12.2918C9.21026 -12.2918 9.10697 -12.2574 8.95203 -11.9992L2.92662 -1.91091ZM4.99248 -4.56209L8.45278 -10.3465L9.03811 -4.56209H4.99248Z" id="g1-65" />
<ns0:path d="M3.08156 -3.99398C3.54638 -3.99398 4.71703 -4.02841 5.54337 -4.33829C6.85175 -4.83754 6.97225 -5.83603 6.97225 -6.14591C6.97225 -6.90339 6.31807 -7.59201 5.18185 -7.59201C3.37423 -7.59201 0.774695 -5.95654 0.774695 -2.89219C0.774695 -1.08457 1.80762 0.172154 3.37423 0.172154C5.71553 0.172154 7.19605 -1.65268 7.19605 -1.87648C7.19605 -1.97978 7.09276 -2.06585 7.0239 -2.06585C6.97225 -2.06585 6.95504 -2.04864 6.8001 -1.8937C5.69831 -0.430386 4.06284 -0.172154 3.40866 -0.172154C2.42738 -0.172154 1.91091 -0.946849 1.91091 -2.22079C1.91091 -2.46181 1.91091 -2.89219 2.16915 -3.99398H3.08156ZM2.25522 -4.33829C2.99549 -6.98947 4.63095 -7.2477 5.18185 -7.2477C5.93933 -7.2477 6.45579 -6.8001 6.45579 -6.14591C6.45579 -4.33829 3.70132 -4.33829 2.97827 -4.33829H2.25522Z" id="g1-101" />
<ns0:path d="M3.88543 2.90511C3.88543 2.86924 3.88543 2.84533 3.68219 2.64209C2.48667 1.43462 1.81719 -0.537983 1.81719 -2.97684C1.81719 -5.29614 2.37908 -7.29265 3.76588 -8.70336C3.88543 -8.81096 3.88543 -8.83487 3.88543 -8.87073C3.88543 -8.94247 3.82565 -8.96638 3.77783 -8.96638C3.62242 -8.96638 2.64209 -8.1056 2.05629 -6.934C1.44658 -5.72653 1.17161 -4.44732 1.17161 -2.97684C1.17161 -1.91283 1.33898 -0.490162 1.96065 0.789041C2.666 2.22366 3.64633 3.00075 3.77783 3.00075C3.82565 3.00075 3.88543 2.97684 3.88543 2.90511Z" id="g2-40" />
<ns0:path d="M3.37136 -2.97684C3.37136 -3.88543 3.25181 -5.36787 2.58232 -6.75467C1.87696 -8.18929 0.896638 -8.96638 0.765131 -8.96638C0.71731 -8.96638 0.657534 -8.94247 0.657534 -8.87073C0.657534 -8.83487 0.657534 -8.81096 0.860772 -8.60772C2.05629 -7.40025 2.72578 -5.42765 2.72578 -2.98879C2.72578 -0.669489 2.16389 1.32702 0.777086 2.73773C0.657534 2.84533 0.657534 2.86924 0.657534 2.90511C0.657534 2.97684 0.71731 3.00075 0.765131 3.00075C0.920548 3.00075 1.90087 2.13998 2.48667 0.968369C3.09639 -0.251059 3.37136 -1.54222 3.37136 -2.97684Z" id="g2-41" />
<ns0:path d="M3.44309 -7.66326C3.44309 -7.93823 3.44309 -7.95019 3.20399 -7.95019C2.91706 -7.6274 2.3193 -7.18506 1.08792 -7.18506V-6.83836C1.36289 -6.83836 1.96065 -6.83836 2.61818 -7.14919V-0.920548C2.61818 -0.490162 2.58232 -0.3467 1.53026 -0.3467H1.15965V0C1.48244 -0.0239103 2.64209 -0.0239103 3.03661 -0.0239103S4.57883 -0.0239103 4.90162 0V-0.3467H4.53101C3.47895 -0.3467 3.44309 -0.490162 3.44309 -0.920548V-7.66326Z" id="g2-49" />
<ns0:path d="M5.26027 -2.00847H4.99726C4.96139 -1.80523 4.86575 -1.1477 4.7462 -0.956413C4.66252 -0.848817 3.98107 -0.848817 3.62242 -0.848817H1.41071C1.7335 -1.12379 2.46276 -1.88892 2.7736 -2.17584C4.59078 -3.84956 5.26027 -4.47123 5.26027 -5.65479C5.26027 -7.02964 4.17235 -7.95019 2.78555 -7.95019S0.585803 -6.76663 0.585803 -5.73848C0.585803 -5.12877 1.11183 -5.12877 1.1477 -5.12877C1.39875 -5.12877 1.70959 -5.30809 1.70959 -5.69066C1.70959 -6.0254 1.48244 -6.25255 1.1477 -6.25255C1.0401 -6.25255 1.01619 -6.25255 0.980324 -6.2406C1.20747 -7.05355 1.85305 -7.60349 2.63014 -7.60349C3.64633 -7.60349 4.268 -6.75467 4.268 -5.65479C4.268 -4.63861 3.68219 -3.75392 3.00075 -2.98879L0.585803 -0.286924V0H4.94944L5.26027 -2.00847Z" id="g2-50" />
<ns0:path d="M2.05629 -8.29689L0.394521 -8.16538V-7.81868C1.20747 -7.81868 1.30311 -7.73499 1.30311 -7.14919V-0.884682C1.30311 -0.3467 1.17161 -0.3467 0.394521 -0.3467V0C0.729265 -0.0239103 1.31507 -0.0239103 1.67372 -0.0239103S2.63014 -0.0239103 2.96488 0V-0.3467C2.19975 -0.3467 2.05629 -0.3467 2.05629 -0.884682V-8.29689Z" id="g2-108" />
<ns0:path d="M5.32005 -2.90511C5.32005 -4.01694 5.32005 -4.35168 5.04508 -4.73425C4.69838 -5.2005 4.13649 -5.27223 3.73001 -5.27223C2.57036 -5.27223 2.11606 -4.27995 2.02042 -4.04085H2.00847V-5.27223L0.382565 -5.14072V-4.79402C1.19552 -4.79402 1.29116 -4.71034 1.29116 -4.12453V-0.884682C1.29116 -0.3467 1.15965 -0.3467 0.382565 -0.3467V0C0.6934 -0.0239103 1.33898 -0.0239103 1.67372 -0.0239103C2.02042 -0.0239103 2.666 -0.0239103 2.97684 0V-0.3467C2.21171 -0.3467 2.06824 -0.3467 2.06824 -0.884682V-3.10834C2.06824 -4.36364 2.89315 -5.03313 3.63437 -5.03313S4.54296 -4.42341 4.54296 -3.69415V-0.884682C4.54296 -0.3467 4.41146 -0.3467 3.63437 -0.3467V0C3.94521 -0.0239103 4.59078 -0.0239103 4.92553 -0.0239103C5.27223 -0.0239103 5.91781 -0.0239103 6.22864 0V-0.3467C5.63088 -0.3467 5.332 -0.3467 5.32005 -0.705355V-2.90511Z" id="g2-110" />
<ns0:path d="M2.85776 -0.705833C2.85776 -1.13622 2.51345 -1.41167 2.15193 -1.41167C1.80762 -1.41167 1.4461 -1.13622 1.4461 -0.705833S1.79041 0 2.15193 0C2.49624 0 2.85776 -0.275447 2.85776 -0.705833Z" id="g3-46" />
<ns0:path d="M4.57931 -11.0007C4.57931 -11.3622 4.56209 -11.3794 4.32108 -11.3794C3.64967 -10.5703 2.63396 -10.312 1.6699 -10.2776C1.61825 -10.2776 1.53217 -10.2776 1.51496 -10.2432S1.49774 -10.1743 1.49774 -9.8128C2.03142 -9.8128 2.92662 -9.91609 3.61524 -10.3293V-1.25673C3.61524 -0.654187 3.58081 -0.447601 2.10028 -0.447601H1.58382V0C2.41016 -0.0172154 3.27093 -0.0344309 4.09727 -0.0344309S5.78439 -0.0172154 6.61073 0V-0.447601H6.09427C4.61374 -0.447601 4.57931 -0.636971 4.57931 -1.25673V-11.0007Z" id="g3-49" />
<ns0:path d="M7.17884 -2.66839H6.86896C6.69681 -1.4461 6.55908 -1.23951 6.49022 -1.13622C6.40414 -0.998496 5.16463 -0.998496 4.92362 -0.998496H1.61825C2.23801 -1.6699 3.44309 -2.89219 4.9064 -4.30386C5.95654 -5.30236 7.17884 -6.47301 7.17884 -8.17733C7.17884 -10.2088 5.56059 -11.3794 3.75297 -11.3794C1.85927 -11.3794 0.705833 -9.70951 0.705833 -8.16012C0.705833 -7.48872 1.20508 -7.40264 1.41167 -7.40264C1.58382 -7.40264 2.10028 -7.50593 2.10028 -8.10847C2.10028 -8.64215 1.65268 -8.79709 1.41167 -8.79709C1.30837 -8.79709 1.20508 -8.77987 1.13622 -8.74544C1.46331 -10.2088 2.46181 -10.9318 3.51195 -10.9318C5.00969 -10.9318 5.99097 -9.74394 5.99097 -8.17733C5.99097 -6.67959 5.11299 -5.38843 4.13171 -4.26943L0.705833 -0.395955V0H6.76567L7.17884 -2.66839Z" id="g3-50" />
<ns0:path d="M1.82484 -5.93933C1.82484 -10.0538 3.75297 -10.9835 4.87197 -10.9835C5.23349 -10.9835 6.11148 -10.9146 6.45579 -10.2432C6.18034 -10.2432 5.66388 -10.2432 5.66388 -9.64065C5.66388 -9.17583 6.04262 -9.02089 6.28364 -9.02089C6.43857 -9.02089 6.90339 -9.08975 6.90339 -9.67508C6.90339 -10.7597 6.04262 -11.3794 4.85475 -11.3794C2.80612 -11.3794 0.654187 -9.24469 0.654187 -5.44008C0.654187 -0.757479 2.59953 0.275447 3.97677 0.275447C5.64666 0.275447 7.23049 -1.2223 7.23049 -3.52917C7.23049 -5.6811 5.83603 -7.2477 4.08006 -7.2477C3.02992 -7.2477 2.25522 -6.55908 1.82484 -5.354V-5.93933ZM3.97677 -0.137724C1.85927 -0.137724 1.85927 -3.30536 1.85927 -3.94234C1.85927 -5.18185 2.44459 -6.97225 4.04563 -6.97225C4.33829 -6.97225 5.18185 -6.97225 5.74996 -5.78439C6.05984 -5.11299 6.05984 -4.40715 6.05984 -3.54638C6.05984 -2.61675 6.05984 -1.92813 5.69831 -1.23951C5.31957 -0.533679 4.76868 -0.137724 3.97677 -0.137724Z" id="g3-54" />
<ns0:path d="M11.0695 -5.52616C11.3278 -5.52616 11.586 -5.52616 11.586 -5.81882C11.586 -6.1287 11.2933 -6.1287 11.0007 -6.1287H1.37724C1.08457 -6.1287 0.79191 -6.1287 0.79191 -5.81882C0.79191 -5.52616 1.05014 -5.52616 1.30837 -5.52616H11.0695ZM11.0007 -2.46181C11.2933 -2.46181 11.586 -2.46181 11.586 -2.77169C11.586 -3.06435 11.3278 -3.06435 11.0695 -3.06435H1.30837C1.05014 -3.06435 0.79191 -3.06435 0.79191 -2.77169C0.79191 -2.46181 1.08457 -2.46181 1.37724 -2.46181H11.0007Z" id="g3-61" />
</ns0:defs>
<ns0:g id="page1">
<ns0:use x="115.757" ns1:href="#g3-49" y="96.6376" />
<ns0:use x="123.653" ns1:href="#g3-54" y="96.6376" />
<ns0:use x="136.33" ns1:href="#g3-61" y="96.6376" />
<ns0:use x="153.504" ns1:href="#g1-65" y="96.6376" />
<ns0:use x="166.141" ns1:href="#g1-101" y="96.6376" />
<ns0:use x="173.953" ns1:href="#g2-40" y="89.5295" />
<ns0:use x="178.506" ns1:href="#g0-0" y="89.5295" />
<ns0:use x="189.797" ns1:href="#g2-108" y="89.5295" />
<ns0:use x="193.048" ns1:href="#g2-110" y="89.5295" />
<ns0:use x="199.552" ns1:href="#g2-40" y="89.5295" />
<ns0:use x="204.104" ns1:href="#g2-50" y="89.5295" />
<ns0:use x="209.957" ns1:href="#g2-41" y="89.5295" />
<ns0:use x="214.509" ns1:href="#g2-41" y="89.5295" />
<ns0:use x="219.062" ns1:href="#g2-40" y="89.5295" />
<ns0:use x="223.614" ns1:href="#g0-0" y="89.5295" />
<ns0:use x="232.913" ns1:href="#g2-49" y="89.5295" />
<ns0:use x="238.766" ns1:href="#g2-41" y="89.5295" />
<ns0:use x="248.598" ns1:href="#g3-61" y="96.6376" />
<ns0:use x="265.772" ns1:href="#g1-65" y="96.6376" />
<ns0:use x="278.409" ns1:href="#g1-101" y="96.6376" />
<ns0:use x="286.221" ns1:href="#g2-108" y="89.5295" />
<ns0:use x="289.473" ns1:href="#g2-110" y="89.5295" />
<ns0:use x="297.969" ns1:href="#g2-50" y="89.5295" />
<ns0:use x="309.102" ns1:href="#g3-61" y="96.6376" />
<ns0:use x="326.276" ns1:href="#g3-50" y="96.6376" />
<ns0:use x="334.172" ns1:href="#g1-65" y="96.6376" />
<ns0:use x="346.808" ns1:href="#g1-58" y="96.6376" />
</ns0:g>
</ns0:svg>
